X: 20093
T: Jimmy O'Reilly's
R: reel
M: 4/4
K: Adorian
|:ABAG EGDE|G2 BG dGBG|ABAG E>G D2|egdB BAAG|
ABAG EGDE|G2 BG dGBG|ABAG E>G D2|egdB BA A2:|
|:ageg a2 ba|gede g2 eg|ageg a2 ga|bg g2 bg g2|
agea agef|(3gfe dB BA (3Bcd|eaaf gaba|(3gfe dB BA A2:|

